X:76
T:score165
L:1/8
Q:1/4=96
M:2/2
I:linebreak $
K:G
!f! G4 (3(DGB (3dcA | G2)!p! (G2 F2 G2 | A3) (A B3) (B |$ d2 Tc2 B2) z2 |!f! g4 (3(dgb (3d'c'a | %5
 g2)!p! (g2 f2 g2 |$ a3) (a b3) (b | d'2 c'2 b)(c'^c'd' | ^d'e') z(e' =d'c'ba |$ %9
 ^c'd') z(d' =c'bag | fedc BAGF | G3) z z4 |] %12
